logos/fluidcoins/fluidcoins.svg

<svg width="98" height="98" viewBox="0 0 98 98" fill="none" xmlns="http://www.w3.org/2000/svg">
<path d="M48.7485 97.4971C75.6716 97.4971 97.4971 75.6716 97.4971 48.7485C97.4971 21.8255 75.6716 0 48.7485 0C21.8255 0 0 21.8255 0 48.7485C0 75.6716 21.8255 97.4971 48.7485 97.4971Z" fill="#032343"/>
<path fill-rule="evenodd" clip-rule="evenodd" d="M46.7546 5.96844C38.1324 6.30007 29.1786 9.61629 22.712 14.7564C20.8881 16.2487 19.3958 17.5752 17.7377 19.2333C17.5718 19.3992 17.406 19.565 17.2402 19.7308L15.5821 21.7205C14.2556 23.2128 12.9291 25.3684 11.7685 27.3581C9.4471 31.5034 7.62317 35.8145 6.79412 41.1204C5.96506 45.4315 5.96506 49.7426 6.46249 54.0537C6.62831 55.546 6.79412 56.8725 7.62317 57.7016C8.61804 58.5306 9.94453 58.5306 10.9394 57.7016C12.1001 56.5409 11.6026 55.546 11.4368 54.0537C10.2762 45.5973 11.9343 37.97 15.5821 30.6743C17.0744 27.6897 20.059 23.7103 22.712 21.3889C24.2043 20.0624 24.8675 19.3992 26.5257 18.2385C33.9872 12.9325 42.6093 10.2795 52.0606 11.1086C57.3666 11.606 62.5067 13.2641 66.4862 15.4197C70.134 17.4094 71.2947 18.4043 74.1135 20.7256C74.2793 20.8915 74.4451 21.0573 74.7767 21.3889C75.2742 21.7205 75.6058 22.0521 75.9374 22.5496C76.1032 22.7154 76.269 22.8812 76.6007 23.2128C77.0981 23.7103 78.7562 25.8658 79.2536 26.3632C79.5853 26.8607 79.9169 27.1923 80.2485 27.6897C80.5801 28.1872 80.7459 28.6846 81.2434 29.0162C82.4041 29.8453 83.8964 29.3478 84.5596 28.5188C85.5545 27.3581 84.8912 26.0316 84.228 25.0367C81.575 21.0573 78.5904 18.0727 75.1084 15.2539C68.1443 9.7821 58.5272 5.80263 46.7546 6.13426V5.96844ZM10.6078 60.852C7.29155 61.5152 8.45223 66.4896 11.6026 65.8263C12.7633 65.4947 13.924 64.334 13.5924 62.8417C13.2608 61.681 12.1001 60.6862 10.6078 60.852ZM85.5545 31.5034C82.2382 32.1666 83.0673 37.141 86.3835 36.4777C89.5339 35.8145 88.7049 31.0059 85.5545 31.5034ZM43.4384 58.6964L44.9307 62.6759C45.0965 63.3391 43.2726 66.4896 43.77 70.3032C43.9358 71.6297 44.2675 72.1271 44.7649 72.9562C47.5837 77.1015 53.5529 77.1015 56.5375 72.7904C58.693 69.4742 57.864 66.3237 55.211 63.8366C54.7136 63.3391 54.8794 63.505 54.5478 62.6759C54.2161 61.8468 53.8845 61.0178 53.5529 60.0229C53.3871 59.5255 52.7238 57.7016 52.558 57.3699L50.7341 52.3956L67.8127 45.929L63.1699 43.7734C61.5118 43.1102 60.0195 42.4469 58.3614 41.6179C57.864 41.4521 56.3717 40.623 56.0401 40.623C55.3768 40.7888 54.2161 41.2862 53.5529 41.6179L43.6042 45.4315C41.9461 46.0948 39.9564 46.5922 39.9564 48.5819C39.9564 49.9084 41.1171 52.5614 41.6145 53.7221C42.2777 55.3802 42.941 57.0383 43.4384 58.6964ZM41.2829 36.6435L66.4862 27.0265C66.3204 26.6949 59.0247 23.047 57.864 22.3838C57.6982 22.2179 56.2059 21.5547 56.0401 21.3889C55.7084 21.2231 35.8111 29.0162 32.8265 30.1769C31.3342 30.6743 30.3393 31.1718 29.8419 32.4982C29.3445 33.6589 29.1786 35.8145 29.1786 37.3068C29.1786 38.9649 29.5103 40.4572 30.1735 41.6179C30.6709 42.4469 31.9974 43.4418 33.3239 43.9392C34.8162 44.4367 36.4743 44.2708 37.8008 43.7734C40.4538 42.6127 41.9461 39.4623 41.2829 36.8093V36.6435ZM84.7254 59.0281C83.3989 64.0024 81.0776 68.3135 78.4246 71.6297L76.7665 73.6194C76.6007 73.7853 76.4348 73.9511 76.269 74.2827C75.7716 74.7801 75.6058 75.1117 75.1084 75.4434L72.6212 77.7647C72.2896 78.0963 71.7921 78.428 71.2947 78.7596C66.4862 82.2416 61.6776 84.7288 55.0452 85.8895C43.4384 88.045 32.8265 84.3972 25.6966 78.9254C24.0385 77.5989 21.3855 75.2776 20.2248 73.7853C20.059 73.6194 19.8932 73.2878 19.7274 73.122C18.5667 71.6297 17.9035 70.8007 16.7428 69.1425C14.9189 66.3237 11.271 68.4793 12.2659 71.1323C12.7633 72.293 15.2505 75.6092 16.2454 76.604C16.577 76.9357 17.0744 77.5989 17.406 77.9305C17.9035 78.2622 18.0693 78.7596 18.5667 79.0912C24.3701 84.8946 31.6658 88.8741 39.9564 90.5322C51.2315 92.8536 62.1751 90.3664 70.6315 85.392C82.9015 78.0963 91.0262 64.8314 91.3579 49.7426C91.3579 47.7529 91.1921 42.7785 90.6946 41.1204C89.6998 38.4675 85.3887 39.1307 85.5545 41.6179C85.8861 45.5973 86.7151 51.7324 84.7254 59.0281Z" fill="url(#paint0_linear)"/>
<defs>
<linearGradient id="paint0_linear" x1="65.8229" y1="84.563" x2="37.4692" y2="10.1137" gradientUnits="userSpaceOnUse">
<stop stop-color="#77BE4D"/>
<stop offset="1" stop-color="#07C9EB"/>
</linearGradient>
</defs>
</svg>

<svg width="98" height="98" fill="none" xmlns="http://www.w3.org/2000/svg"><path d="M48.748 97.497c26.924 0 48.75-21.825 48.75-48.748C97.497 21.825 75.671 0 48.747 0 21.826 0 0 21.826 0 48.748c0 26.924 21.826 48.75 48.748 48.75z" fill="#032343"/><path fill-rule="evenodd" clip-rule="evenodd" d="M46.755 5.968c-8.623.332-17.576 3.648-24.043 8.788-1.824 1.493-3.316 2.82-4.974 4.477l-.498.498-1.658 1.99c-1.326 1.492-2.653 3.647-3.814 5.637-2.32 4.145-4.145 8.457-4.974 13.762-.829 4.312-.829 8.623-.332 12.934.166 1.492.332 2.819 1.161 3.648.995.829 2.322.829 3.316 0 1.161-1.161.664-2.156.498-3.648-1.16-8.457.497-16.084 4.145-23.38 1.492-2.984 4.477-6.964 7.13-9.285 1.492-1.327 2.155-1.99 3.814-3.15 7.461-5.307 16.083-7.96 25.535-7.13 5.306.497 10.446 2.155 14.425 4.31 3.648 1.99 4.809 2.985 7.627 5.307l.664.663c.497.332.829.663 1.16 1.16l.664.664c.497.497 2.155 2.653 2.653 3.15.331.498.663.83.995 1.327.331.497.497.995.994 1.326 1.161.83 2.653.332 3.317-.497.995-1.16.331-2.487-.332-3.482-2.653-3.98-5.638-6.964-9.12-9.783-6.964-5.472-16.58-9.451-28.353-9.12v-.166zM10.608 60.852c-3.316.663-2.156 5.638.995 4.974 1.16-.331 2.321-1.492 1.99-2.984-.332-1.161-1.493-2.156-2.985-1.99zm74.947-29.349c-3.317.664-2.488 5.638.828 4.975 3.15-.663 2.322-5.472-.828-4.975zM43.438 58.696l1.493 3.98c.166.663-1.658 3.814-1.161 7.627.166 1.327.497 1.824.995 2.653 2.819 4.145 8.788 4.145 11.773-.166 2.155-3.316 1.326-6.466-1.327-8.953-.497-.498-.332-.332-.663-1.161a45.827 45.827 0 01-.995-2.653c-.166-.498-.83-2.321-.995-2.653l-1.824-4.974 17.079-6.467-4.643-2.156a61.201 61.201 0 01-4.809-2.155c-.497-.166-1.99-.995-2.32-.995-.664.166-1.825.663-2.488.995l-9.949 3.813c-1.658.664-3.648 1.161-3.648 3.15 0 1.327 1.161 3.98 1.658 5.141.664 1.658 1.327 3.316 1.824 4.974zm-2.155-22.052l25.203-9.617c-.166-.332-7.461-3.98-8.622-4.643-.166-.166-1.658-.83-1.824-.995-.332-.166-20.229 7.627-23.213 8.788-1.493.497-2.488.995-2.985 2.321-.497 1.16-.663 3.317-.663 4.809 0 1.658.331 3.15.995 4.31.497.83 1.823 1.825 3.15 2.322 1.492.498 3.15.332 4.477-.166 2.653-1.16 4.145-4.31 3.482-6.964v-.165zm43.442 22.384c-1.326 4.974-3.647 9.286-6.3 12.602l-1.659 1.99c-.165.165-.331.331-.497.663-.497.497-.663.829-1.16 1.16l-2.488 2.322c-.331.331-.829.663-1.326.995-4.809 3.482-9.617 5.969-16.25 7.13-11.607 2.155-22.218-1.493-29.348-6.965-1.659-1.326-4.311-3.647-5.472-5.14-.166-.166-.332-.497-.498-.663-1.16-1.492-1.823-2.321-2.984-3.98-1.824-2.818-5.472-.663-4.477 1.99.497 1.161 2.985 4.477 3.98 5.472.331.332.828.995 1.16 1.326.498.332.663.83 1.16 1.161 5.804 5.804 13.1 9.783 21.39 11.441 11.275 2.322 22.22-.166 30.675-5.14 12.27-7.296 20.395-20.56 20.727-35.65 0-1.99-.166-6.963-.663-8.622-.995-2.652-5.306-1.99-5.14.498.331 3.98 1.16 10.114-.83 17.41z" fill="url(#paint0_linear)"/><defs><linearGradient id="paint0_linear" x1="65.823" y1="84.563" x2="37.469" y2="10.114" gradientUnits="userSpaceOnUse"><stop stop-color="#77BE4D"/><stop offset="1" stop-color="#07C9EB"/></linearGradient></defs></svg>
